X:440
T:Frolic. (p).1701.PLFD1.440, The
M:4/4
L:1/4
Q:1/2=80
S:Playford, Dancing Master,11th Ed.,1701.
O:England;London
N:Bar three prints correctly but playQABC doesn't like it.
Z:Chris Partington.
K:Bb
D|G(A/B/) (c/B/)(A/G/)|(^F/G/)AD2|G2A>G/2A/4|B3:|
|:B/c/|dBGd|B>AGB/c/|dBGd|B>AG(A/B/)|
(c/B/)(A/G/) (^F/G/)A|DG2A|Bd2g|b(a/g/)fd|B>AG(g/a/)|
b(a/g/)fd|B>AG(A/B/)|(c/B/)(A/G/) (^F/G/)(A/F/)|G3:|
